X:77
T:Polska av Carl Gudmundster
C:Carl Gudmundster
O:Dalarna
Z:Transcribed to abcby Jon Magnusson 081104 
R:Polska
M:3/4 
L:1/8 
K:Am
g|:a>g e>d e>B|d>c A>G A>F|E>G B>d c>B|B>A A>c e>e|
a>g e>d e>B|d>c A>G A>F|E>G B>d c>B|B>A A4:|
A,>C E>A c>e|e>d c>B B>E|E>^G B>d c>B|B>A A>c e>e|
a>g e>c A>A|a>a f>e d>c|B>A G>A B>c|(3 dcd e4|
A,>C E>A c>e|e>d c>B B>E|E>^G B>d c>B|B>A A>c e>e|
a>g e>c A>A|a>a f>e d>c|B>A G>A B>d|(3 dBd c4||
